X: 11035
T: GIRARDOT'S JIG #2
C: Bob McQuillen 24 June 2000
B: Bob's Note Book 11 #35
R: jig
Z: 2020 John Chambers <jc:trillian.mit.edu>
M: 6/8
L: 1/8
K: G
E \
|  DBA GBd | geg d2g | ece dBG | EAG FGA |\
|  DBA GBd | geg d2B | cec BdB | AGF G2 :|
|: B \
|  dBG G2g | ecc cde | dBG BAG | FGA cBc |\
|1 dBG G2g | ecc cde | dge dBA | BGG G2 :|
|2 dBd dBd | ecA ecA | deg fef | gGG G2 :|\
y6 y6 y6 y6 y6 y6 y6 y6
%%begintext align
%% fiddle & clogs; Laura dances, plays
%% flute and piccolo, and teaches Cajun dancing.
%% They're a great pair, and I call them
%% dear friends. Hope these tunes work out
%% OK, you guys!
%%endtext

%%sep 1 1 500

%%sep 1 1 500

